X:1
T: Miss Crawford
C:
R:Reel
Q: 232
K:Gm
M:4/4
L:1/8
dc|BG ^FG DG FG|AF ((3FFF) AF cF|BG ^FG DG FG|cA fA Gc dc|
BG ^FG DG FG|AF ((3FFF) AF cF|BG ^FG DG FG|cA fA G2 G2|
|:Gg g^f ga g=f|df cf ec ((3cBA) |Gg g^f ga g=f|cA fA G2 G2|
((3gab) ((3fga) ga fg|df cf ec ((3cBA) |((3BAG) ((3cBA) ((3Bcd) ((3=e^fg)|((3fed) ((3cBA) G2 G2:|
BG ^FG DG FG|AF ((3FFF) AF cF|BG ^FG DG FG|cA fA Gc dc|
BG ^FG DG FG|AF ((3FFF) AF cF|BG ^FG DG FG|cA fA G2||
